svg/hand-right.svg

<?xml version="1.0" encoding="UTF-8" standalone="no"?>
<svg
   xmlns:dc="http://purl.org/dc/elements/1.1/"
   xmlns:cc="http://creativecommons.org/ns#"
   xmlns:rdf="http://www.w3.org/1999/02/22-rdf-syntax-ns#"
   xmlns:svg="http://www.w3.org/2000/svg"
   xmlns="http://www.w3.org/2000/svg"
   xmlns:sodipodi="http://sodipodi.sourceforge.net/DTD/sodipodi-0.dtd"
   xmlns:inkscape="http://www.inkscape.org/namespaces/inkscape"
   class="ionicon"
   viewBox="0 0 512 512"
   version="1.1"
   id="svg6"
   sodipodi:docname="hand-right.svg"
   inkscape:version="1.0.2 (e86c8708, 2021-01-15)">
  <metadata
     id="metadata12">
    <rdf:RDF>
      <cc:Work
         rdf:about="">
        <dc:format>image/svg+xml</dc:format>
        <dc:type
           rdf:resource="http://purl.org/dc/dcmitype/StillImage" />
      </cc:Work>
    </rdf:RDF>
  </metadata>
  <defs
     id="defs10" />
  <sodipodi:namedview
     pagecolor="#ffffff"
     bordercolor="#666666"
     borderopacity="1"
     objecttolerance="10"
     gridtolerance="10"
     guidetolerance="10"
     inkscape:pageopacity="0"
     inkscape:pageshadow="2"
     inkscape:window-width="689"
     inkscape:window-height="480"
     id="namedview8"
     showgrid="false"
     inkscape:zoom="1.3027344"
     inkscape:cx="256"
     inkscape:cy="256"
     inkscape:window-x="44"
     inkscape:window-y="25"
     inkscape:window-maximized="0"
     inkscape:current-layer="svg6" />
  <title
     id="title2">Hand Right</title>
  <path
     style="color:#000000;font-style:normal;font-variant:normal;font-weight:normal;font-stretch:normal;font-size:medium;line-height:normal;font-family:sans-serif;font-variant-ligatures:normal;font-variant-position:normal;font-variant-caps:normal;font-variant-numeric:normal;font-variant-alternates:normal;font-variant-east-asian:normal;font-feature-settings:normal;font-variation-settings:normal;text-indent:0;text-align:start;text-decoration:none;text-decoration-line:none;text-decoration-style:solid;text-decoration-color:#000000;letter-spacing:normal;word-spacing:normal;text-transform:none;writing-mode:lr-tb;direction:ltr;text-orientation:mixed;dominant-baseline:auto;baseline-shift:baseline;text-anchor:start;white-space:normal;shape-padding:0;shape-margin:0;inline-size:0;clip-rule:nonzero;display:inline;overflow:visible;visibility:visible;isolation:auto;mix-blend-mode:normal;color-interpolation:sRGB;color-interpolation-filters:linearRGB;solid-color:#000000;solid-opacity:1;vector-effect:none;fill:#000000;fill-opacity:1;fill-rule:nonzero;stroke-width:1;stroke-linecap:butt;stroke-linejoin:miter;stroke-miterlimit:4;stroke-dasharray:none;stroke-dashoffset:0;stroke-opacity:1;color-rendering:auto;image-rendering:auto;shape-rendering:auto;text-rendering:auto;enable-background:accumulate;stop-color:#000000;stop-opacity:1;stroke:none;opacity:1"
     d="m 79.2,211.44 c 15.52,-8.82 34.91,-2.28 43.31,13.68 l 41.38,84.41 c 1.60931,3.31617 5.51453,4.81616 8.93,3.43 2.66844,-1.06274 4.41688,-3.64773 4.41,-6.52 V 72 c 0,-13.91 12.85,-24 26.77,-24 13.92,0 26,10.09 26,24 v 156.64 c -0.0698,6.08252 4.71194,11.11687 10.79,11.36 6.15697,0.11756 11.21112,-4.8419 11.21,-11 V 24 C 252,10.09 262.94,0 276.86,0 290.78,0 302,10.09 302,24 v 204.64 c -0.0698,6.08252 4.71194,11.11687 10.79,11.36 6.15697,0.11756 11.21112,-4.8419 11.21,-11 V 56 c 0,-13.91 12.08,-24 26,-24 13.92,0 26,11.09 26,25 v 187.64 c -0.0698,6.08252 4.71194,11.11687 10.79,11.36 6.15697,0.11756 11.21112,-4.8419 11.21,-11 V 120 c 0,-13.91 11.08,-24 25,-24 13.92,0 25.12,10.22 25,24 v 216 c 0,117.41 -72,176 -160,176 H 272 C 184,512 156.29,472.4 136,424 L 67.33,255 C 60.67,237 63.69,220.25 79.2,211.44 Z"
     id="path4" />
</svg>

<svg xmlns="http://www.w3.org/2000/svg" width="512" height="512" viewBox="0 0 512 512"><title>ionicons-v5-i</title><path d="M79.2,211.44h0c15.52-8.82,34.91-2.28,43.31,13.68l41.38,84.41a7,7,0,0,0,8.93,3.43h0a7,7,0,0,0,4.41-6.52V72c0-13.91,12.85-24,26.77-24s26,10.09,26,24V228.64A11.24,11.24,0,0,0,240.79,240,11,11,0,0,0,252,229V24c0-13.91,10.94-24,24.86-24S302,10.09,302,24V228.64A11.24,11.24,0,0,0,312.79,240,11,11,0,0,0,324,229V56c0-13.91,12.08-24,26-24s26,11.09,26,25V244.64A11.24,11.24,0,0,0,386.79,256,11,11,0,0,0,398,245V120c0-13.91,11.08-24,25-24s25.12,10.22,25,24V336c0,117.41-72,176-160,176H272c-88,0-115.71-39.6-136-88L67.33,255C60.67,237,63.69,220.25,79.2,211.44Z"/></svg>
